X:1
T:Title
%%score { 1 | ( 2 3 ) }
L:1/8
Q:1/4=90
M:6/8
K:G
V:1 treble nm="Grand Piano"
V:2 treble 
V:3 treble 
V:1
 B>AG DGA | G3 F3 | [Fc]>[FB][FA] [FA][=F^G][^FA] | [GB]6 | [DB]>[CA][B,G] [G,B,D][G,DG][CEA] | %5
w: Thoro~Harris * * * * *|||||
 [B,DG]3 [A,DF]3 | [EFc]>[DFB][CFA] [DGB][B,DG][CDA] | [B,DG]6 | [Bd]>cB Bcd | [ce]3 e3 | %10
w: |||||
 [Ac]>BA .[FA]2 [EA] | [^DB]6 | [DB]>[CA][B,G] [B,D][DG][EA] | [DG]3 [DF]3 | %14
w: ||||
 [Ec]>[EB][EA] [Dd][B,G][CFA] | [B,G]6 |] %16
w: ||
V:2
 [G,DG]>[G,CD][G,B,D] [G,B,][G,B,D][K:bass][G,B,D] | [A,CD]3 [A,CD]3 | %2
 [D,A,]>[D,B,][D,C] [D,C][D,B,][D,C] | [G,B,]6 | [G,,G,]>[G,,D,][G,,D,] G,,B,,C, | D,3 D,3 | %6
 D,>D,D, D,D,D, | G,6 | z z/[K:treble] A/G GAB | z3[K:treble] c3 | z z/ G/F z G[K:bass]C, | %11
 [B,,F,]6 | [G,,G,]>[G,,D,][G,,D,] [G,,G,][B,,G,][C,G,] | [D,B,]3 [D,A,]3 | %14
 [A,,A,]>[B,,^G,][C,A,] [D,B,]E,D, | G,6 |] %16
V:3
 x5[K:bass] x | x6 | x6 | x6 | x6 | x6 | x6 | x6 | G,6[K:treble] | C,6[K:treble] | %10
 D,3 .E,3[K:bass] | x6 | x6 | x6 | x6 | x6 |] %16

